dist/svg/u1F4C6.svg

<?xml version="1.0" encoding="UTF-8"?><svg id="a" xmlns="http://www.w3.org/2000/svg" viewBox="0 0 40 40"><rect width="40" height="40" fill="none"/><g><path d="M33.091,4.799H6.909c-1.607,0-2.909,1.302-2.909,2.909v25.212c0,1.607,1.302,2.909,2.909,2.909H28.242l7.758-7.758V7.708c0-1.607-1.302-2.909-2.909-2.909Z" fill="#e5e9ee"/><g><path d="M11,19.453h0c0-.453,.233-.875,.618-1.115l3.009-1.882c.307-.192,.662-.294,1.024-.294h0c1.066,0,1.931,.864,1.931,1.931v11.154c0,.879-.713,1.592-1.592,1.592h0c-.879,0-1.592-.713-1.592-1.592v-9.532l-1.39,.858c-.876,.541-2.006-.089-2.006-1.119Z" fill="#ef4452"/><path d="M19.235,17.647h0c0-.713,.578-1.291,1.291-1.291h7.313c.641,0,1.161,.52,1.161,1.161h0c0,.746-.153,1.483-.451,2.167l-4.424,10.178c-.258,.593-.843,.977-1.49,.977h0c-1.178,0-1.964-1.213-1.484-2.288l4.297-9.612h-4.921c-.713,0-1.291-.578-1.291-1.291Z" fill="#ef4452"/></g><path d="M6.909,4.799h26.182c1.606,0,2.909,1.304,2.909,2.909v4.686H4V7.708c0-1.606,1.304-2.909,2.909-2.909Z" fill="#fdaeb3"/><line x1="10.303" y1="3.587" x2="10.303" y2="6.011" fill="none" stroke="#4b596a" stroke-linecap="round" stroke-miterlimit="10" stroke-width="2.424"/><line x1="29.697" y1="3.587" x2="29.697" y2="6.011" fill="none" stroke="#4b596a" stroke-linecap="round" stroke-miterlimit="10" stroke-width="2.424"/><path d="M30.182,28.072h5.818l-7.758,7.758v-5.818c0-1.071,.868-1.939,1.939-1.939Z" fill="#c0c7d1" fill-rule="evenodd"/></g></svg>

<svg id="Layer_1" data-name="Layer 1" xmlns="http://www.w3.org/2000/svg" viewBox="0 0 40 40"><defs><style>.cls-1,.cls-5{fill:none;}.cls-2{fill:#e5e9ee;}.cls-3{fill:#ef4452;}.cls-4{fill:#fdaeb3;}.cls-5{stroke:#4b596a;stroke-linecap:round;stroke-miterlimit:10;stroke-width:2.424px;}.cls-6{fill:#c0c7d1;fill-rule:evenodd;}</style></defs><rect class="cls-1" width="40" height="40"/><path class="cls-2" d="M33.091,4.8H6.909A2.908,2.908,0,0,0,4,7.708V32.92a2.908,2.908,0,0,0,2.909,2.909H28.242L36,28.072V7.708A2.908,2.908,0,0,0,33.091,4.8Z"/><path class="cls-3" d="M11,19.453h0a1.314,1.314,0,0,1,.618-1.115l3.008-1.882a1.923,1.923,0,0,1,1.024-.294h0a1.93,1.93,0,0,1,1.931,1.93V29.246a1.592,1.592,0,0,1-1.592,1.592h0A1.592,1.592,0,0,1,14.4,29.246V19.714l-1.391.858A1.315,1.315,0,0,1,11,19.453Z"/><path class="cls-3" d="M19.235,17.647h0a1.292,1.292,0,0,1,1.292-1.292h7.312A1.161,1.161,0,0,1,29,17.516h0a5.422,5.422,0,0,1-.451,2.167L24.125,29.861a1.623,1.623,0,0,1-1.49.977h0a1.625,1.625,0,0,1-1.484-2.288l4.3-9.612H20.527A1.292,1.292,0,0,1,19.235,17.647Z"/><path class="cls-4" d="M6.909,4.8H33.091A2.909,2.909,0,0,1,36,7.708v4.686a0,0,0,0,1,0,0H4a0,0,0,0,1,0,0V7.708A2.909,2.909,0,0,1,6.909,4.8Z"/><line class="cls-5" x1="10.303" y1="3.587" x2="10.303" y2="6.011"/><line class="cls-5" x1="29.697" y1="3.587" x2="29.697" y2="6.011"/><path class="cls-6" d="M30.182,28.072H36l-7.758,7.757V30.011A1.94,1.94,0,0,1,30.182,28.072Z"/></svg>
